X: 35
T:Drowsy Maggie
H:T Peoples
C:Reel
M:4/4
K:D
~E3d cEBE | ~E2BG FADF | (3.B.E.EEd cEBc |1 dfec dBAF :|2 dfec dAFA ||\
d2D2(3.d.d.d {e}dcBd | cAeA cAeA | (3.d.d.dfd {e}dcBA | ^GABc dAFA |\
~d2fd {e}dcBd | cdef gbag | (3.f.f.fec dcBA | ^GABc dAFD ||
